X:264
T:The rising sun
T:The rising of the sun
R:Reel/Hornpipe
O:Ireland
B:Ceol Rince 2 n214
B:Ceol Rince 1 n136
B:Roche 2 n221
S:My arrangement from various sources- mostly Roche...
Z:Transcription, arrangement, chords:Mike Long
M:C|
L:1/8
K:D
(3(gfe)[|\
"D"d2FB "A"A2FA|"G"(3(Bcd) eg "A"fdec|"D"d2FB "A"A2FD|"G"EGFE "D"Dgfe|\
"D"d2FB "A"A2FA|
"G"(3(Bcd) eg "A"fdec|\
"D"d2FB "A"A2FD|"G"EGFE "D"D2|]\
A2|\
"D"defg afed|"A"(3(cBA) eA fA eA|
"D"defg afed|"A"(3(cBA) Bc "D"d2dA|\
"D"defg afed|"A"(3(cBA) eA fA eA|"D"df~f2 "G"eg~g2|"A"afge "D"dgfe|]
